X:1
T: The Happy Mistake
C:
R:Jig
Q:180
K:A
M:6/8
L:1/16
|:E2|A2B2A2 B2A2B2|c4a2 f2e2c2|A4A2 B2A2B2|c2A2F2 F4E2|
A2B2A2 B2A2B2|c4a2 f2e2c2|d4B2 c2A2F2|A2B2A2 A4:|
|:e2|a2g2a2 f2g2a2|g2e2c2 c4e2|a2g2a2 f2g2a2|b2g2e2 e2f2g2|
a4f2 b2a2g2|a2g2f2 e2c2A2|d4B2 c2A2F2|A2B2A2 A4:|
